X: 24448
T: Luck Of The Toss, The
R: slip jig
M: 9/8
K: Adorian
cBA AEA Aed|cBc ABc BdB|~c2A AEA ABA|GBd gfe ded|
BcA AEA Aed|cBc ABc BdB|~c2A AEA AdB|GBd gfe dBG||
A/Bce abc' aec|Ace aea c'ba|Ace abc' ag^f|gfg dBG A/Bcd|
Ace abc' ~a3|Ace aea c'ba|gfg bef gfg|dBG DGB ded||

